X: 13
M:C|
L:1/8
K:G
ud|\
vkg2vdB kg2dB | vg2vfg afdf | kg2dB kg2dB | .e(gf)(a g2)z2 :|
|:vBcdB cBAG | FGAB {d}c2BA | \


